.local/share/icons/Gruvbox-Plus-Dark/panel/16/seafile-status-paused.svg

<svg xmlns="http://www.w3.org/2000/svg" width="16" height="16" version="1.1">
 <defs>
  <style id="current-color-scheme" type="text/css">
   .ColorScheme-Text { color:#ebdbb2; } .ColorScheme-Highlight { color:#458588; }
  </style>
 </defs>
 <path style="opacity:0.3;fill:currentColor" class="ColorScheme-Text" d="M 5.5 2 A 2.5 2.5 0 0 0 3 4.5 A 2.5 2.5 0 0 0 3.0800781 5.1152344 C 2.9016756 5.0403797 2.7055904 5 2.5 5 C 1.8477854 5 1.2983894 5.4186545 1.0917969 6 L 0.5 6 A 0.5 0.5 0 0 0 0 6.5 A 0.5 0.5 0 0 0 0.5 7 L 3.0644531 7 C 3.6964987 6.3840071 4.5557543 6 5.5 6 A 1.0001 1.0001 0 0 0 5.5019531 6 C 5.7732799 6.0005645 5.9929778 6.1900133 6.2539062 6.2519531 C 6.54165 5.2854225 7.1329499 4.4515097 7.9160156 3.8671875 A 2.5 2.5 0 0 0 5.5 2 z M 10.5 4 C 8.5670034 4 7 5.5670034 7 7.5 L 7 7.5039062 C 6.567749 7.1779487 6.0413714 7.0011264 5.5 7 C 4.1192881 7 3 8.1192881 3 9.5 C 3.001247 9.6901384 3.0241818 9.8795141 3.0683594 10.064453 C 2.4345508 10.254893 2.0004442 10.838199 2 11.5 C 2 12.328427 2.6715729 13 3.5 13 L 4.1425781 13 C 4.7080074 12.842086 4.9855043 12.493302 5.2675781 12.146484 C 6.6976122 10.168231 7.9294548 8.0067754 10.189453 8 C 12 8 13 9 13 10.5 C 13 10.650324 12.970838 10.792768 12.929688 10.929688 A 2.5 2.5 0 0 1 13 11.5 A 2.5 2.5 0 0 1 12.492188 13.005859 L 14 13 C 15.104569 13 16 12.104569 16 11 C 16 9.8954305 15.104569 9 14 9 C 13.880105 9.000332 13.760483 9.0114441 13.642578 9.0332031 C 13.876604 8.5559096 13.998837 8.031579 14 7.5 C 14 5.5670034 12.432997 4 10.5 4 z"/>
 <path style="fill:currentColor" class="ColorScheme-Text" d="m 9,10 0,3 1,0 0,-3 z m 2,0 0,3 1,0 0,-3 z"/>
</svg>

<svg width="16" height="16" version="1.1" xmlns="http://www.w3.org/2000/svg">
  <defs>
    <style id="current-color-scheme" type="text/css">.ColorScheme-Text { color:#ebdbb2; } .ColorScheme-Highlight { color:#458588; } .ColorScheme-NeutralText { color:#fe8019; } .ColorScheme-PositiveText { color:#689d6a; } .ColorScheme-NegativeText { color:#fb4934; }</style>
  </defs>
  <path class="ColorScheme-Text" d="m5.5 2a2.5 2.5 0 0 0-2.5 2.5 2.5 2.5 0 0 0 0.08008 0.6152c-0.1784-0.07485-0.3745-0.1152-0.5801-0.1152-0.6522 0-1.202 0.4187-1.408 1h-0.5918a0.5 0.5 0 0 0-0.5 0.5 0.5 0.5 0 0 0 0.5 0.5h2.564c0.632-0.616 1.491-1 2.436-1a1 1 0 0 0 0.001953 0c0.2713 5.645e-4 0.491 0.19 0.752 0.252 0.2877-0.9665 0.879-1.8 1.662-2.385a2.5 2.5 0 0 0-2.416-1.867zm5 2c-1.933 0-3.5 1.567-3.5 3.5v0.003906c-0.4323-0.326-0.9586-0.5028-1.5-0.5039-1.381 0-2.5 1.119-2.5 2.5 0.001247 0.1901 0.02418 0.3795 0.06836 0.5645-0.6338 0.1904-1.068 0.7737-1.068 1.436 0 0.8284 0.6716 1.5 1.5 1.5h0.6426c0.5654-0.1579 0.8429-0.5067 1.125-0.8535 1.43-1.978 2.662-4.14 4.922-4.146 1.811 0 2.811 1 2.811 2.5 0 0.1503-0.02916 0.2928-0.07031 0.4297a2.5 2.5 0 0 1 0.07031 0.5703 2.5 2.5 0 0 1-0.5078 1.506l1.508-0.005859c1.105 0 2-0.8954 2-2 0-1.105-0.8954-2-2-2-0.1199 3.32e-4 -0.2395 0.01144-0.3574 0.0332 0.234-0.4773 0.3563-1.002 0.3574-1.533 0-1.933-1.567-3.5-3.5-3.5z" fill="currentColor" opacity=".3"/>
  <path class="ColorScheme-Text" d="m9 10v3h1v-3zm2 0v3h1v-3z" fill="currentColor"/>
</svg>
